X:1
T:Title
L:1/8
M:4/4
K:C
V:1 treble nm="Grand Piano"
V:1
 z4 z[Q:1/4=100] EEA | c2 B2 A2 G2 | F>E D2- DDEF | E2 ^C2 E2 D2- | D4- DB,CD | E2 F2 G>A GF | %6
 E4- EEEF | D^CDE F2 F2- | F4- FEEF | ^G2 A2 BABc | A4- AAAB | A2 E2 G3 F/E/ | F4- F^GGA | %13
 B2 B2 ^F^G F2 | ^G4 D^CDE | F2 F2 EFEF | ^G8- | G2 d2 c2 B2 | ^F2 ^G2 A4- | A6 z2 |] %20

